X: 663
T: Jian lantan
L: 1/8
M: 2/4
K: F
d2d f [I:setbarnb 1]| 
d2A c | 
f> f f d | 
c3A | 
c2A c | 
d2c A | 
G> A F A | 
G4 | 
A2A G | 
Af2d | 
A2c2 | 
F3D | 
dc2d | 
c2A2 | 
G> C D E | 
D4 |]

@@@ Tune index: 9537
